pix_core/i/assignroles.svg

<!DOCTYPE svg PUBLIC "-//W3C//DTD SVG 1.1//EN" "http://www.w3.org/Graphics/SVG/1.1/DTD/svg11.dtd" [
	<!ENTITY ns_flows "http://ns.adobe.com/Flows/1.0/">
]><svg xmlns="http://www.w3.org/2000/svg" width="16" height="16" viewBox="0 0 16 16" preserveAspectRatio="xMinYMid meet" overflow="visible"><path d="M12 16h-12v-2.9l5.2-2.8c.5-.3.6-.8.2-1.3 0 0-1.4-1.8-1.4-3.8 0-2.9 1.8-5.2 4-5.2s4 2.3 4 5.2c0 1.1-.4 2.1-.8 2.8-1.8.4-3.2 2-3.2 4 0 2.2 1.8 4 4 4zm0 0h4v-3l-.1-.1c-.4 1.7-2 3.1-3.9 3.1zm3-5h-2v-2h-2v2h-2v2h2v2h2v-2h2v-2z" fill="#888"/></svg>

<?xml version="1.0" encoding="utf-8"?>
<!-- Generator: Adobe Illustrator 15.1.0, SVG Export Plug-In  -->
<!DOCTYPE svg PUBLIC "-//W3C//DTD SVG 1.1//EN" "http://www.w3.org/Graphics/SVG/1.1/DTD/svg11.dtd" [
	<!ENTITY ns_flows "http://ns.adobe.com/Flows/1.0/">
]>
<svg version="1.1"
	 xmlns="http://www.w3.org/2000/svg" xmlns:xlink="http://www.w3.org/1999/xlink" xmlns:a="http://ns.adobe.com/AdobeSVGViewerExtensions/3.0/"
	 x="0px" y="0px" width="16px" height="16px" viewBox="0 0 16 16" style="overflow:visible;enable-background:new 0 0 16 16;"
	 xml:space="preserve" preserveAspectRatio="xMinYMid meet">
<defs>
</defs>
<path style="fill:#29a1c4;" d="M12,16H0v-2.9l5.2-2.8C5.7,10,5.8,9.5,5.4,9C5.4,9,4,7.2,4,5.2C4,2.3,5.8,0,8,0s4,2.3,4,5.2
	c0,1.1-0.4,2.1-0.8,2.8C9.4,8.4,8,10,8,12C8,14.2,9.8,16,12,16z M12,16h4v-3l-0.1-0.1C15.5,14.6,13.9,16,12,16z M15,11h-2V9h-2v2H9
	v2h2v2h2v-2h2V11z"/>
</svg>
